images/Logo.svg

<svg width="69" height="56" viewBox="0 0 69 56" fill="none" xmlns="http://www.w3.org/2000/svg">
<g clip-path="url(#clip0_1374_36)">
<path d="M39.1496 16.87L37.8396 15.87C37.6348 15.7043 37.3729 15.626 37.1108 15.6522C36.8486 15.6784 36.6074 15.807 36.4396 16.01L18.3096 36.83L18.5896 37.14L23.0796 33C22.9299 32.9398 22.8061 32.8291 22.7297 32.6871C22.6532 32.5451 22.6289 32.3807 22.661 32.2227C22.6931 32.0646 22.7795 31.9227 22.9053 31.8218C23.0311 31.7208 23.1883 31.6671 23.3496 31.67C23.495 31.67 23.6366 31.7166 23.7536 31.803C23.8706 31.8894 23.9568 32.011 23.9996 32.15L29.9196 26.66C30.0102 26.587 30.1231 26.5472 30.2396 26.5472C30.356 26.5472 30.4689 26.587 30.5596 26.66L30.8596 26.88C30.9611 26.9528 31.0861 26.9849 31.2101 26.9701C31.3341 26.9553 31.4481 26.8946 31.5296 26.8L39.2696 18.12C39.3518 18.0339 39.4146 17.931 39.4536 17.8184C39.4925 17.7058 39.5068 17.5862 39.4954 17.4676C39.484 17.349 39.4473 17.2343 39.3876 17.1312C39.3279 17.028 39.2467 16.939 39.1496 16.87Z" fill="#303030"/>
<path d="M47.6703 22.73C43.7028 25.553 39.2581 27.6364 34.5503 28.88C29.8777 30.0683 25.0965 30.7786 20.2803 31C20.3773 31.7102 20.5516 32.4077 20.8003 33.08C23.5203 35.54 44.0003 31.34 48.0003 26.48C48.8503 25.47 47.6703 22.73 47.6703 22.73ZM23.3503 33C23.2158 33 23.0843 32.9601 22.9725 32.8854C22.8607 32.8107 22.7735 32.7045 22.722 32.5802C22.6706 32.4559 22.6571 32.3192 22.6833 32.1873C22.7096 32.0554 22.7743 31.9342 22.8694 31.8391C22.9645 31.744 23.0857 31.6793 23.2176 31.653C23.3495 31.6268 23.4862 31.6403 23.6105 31.6917C23.7348 31.7432 23.841 31.8304 23.9157 31.9422C23.9904 32.054 24.0303 32.1855 24.0303 32.32C24.0316 32.4097 24.015 32.4987 23.9813 32.5818C23.9476 32.6649 23.8975 32.7404 23.8341 32.8038C23.7707 32.8672 23.6952 32.9173 23.6121 32.951C23.529 32.9847 23.4399 33.0013 23.3503 33Z" fill="#303030"/>
<path d="M4.0003 21.2899L4.1603 20.5999L6.7603 21.1899C6.9748 21.5861 7.10743 22.0214 7.1503 22.4699C7.19993 22.945 7.16951 23.425 7.0603 23.8899C6.93085 24.5352 6.63431 25.1352 6.2003 25.6299C5.78739 26.097 5.25497 26.4428 4.6603 26.6299C4.04739 26.8189 3.39551 26.8431 2.7703 26.6999C2.14372 26.5646 1.56617 26.2603 1.1003 25.8199C0.641569 25.3969 0.312165 24.8526 0.150299 24.2499C-0.0292664 23.5954 -0.0292664 22.9045 0.150299 22.2499C0.257777 21.76 0.450726 21.2929 0.720299 20.8699C0.975438 20.4853 1.31814 20.1665 1.7203 19.9399L2.0803 20.4899C1.7356 20.7016 1.43972 20.9839 1.21218 21.3183C0.984643 21.6527 0.830626 22.0316 0.760299 22.4299C0.636286 22.9473 0.646613 23.4877 0.790299 23.9999C0.924669 24.4863 1.1912 24.9259 1.5603 25.2699C1.93968 25.6367 2.41433 25.8896 2.9303 25.9999C3.43063 26.1404 3.95997 26.1404 4.4603 25.9999C4.93959 25.8417 5.37007 25.5628 5.7103 25.1899C6.05994 24.7873 6.3009 24.3019 6.4103 23.7799C6.57483 23.1468 6.53279 22.4776 6.2903 21.8699L4.0003 21.2899Z" fill="#303030"/>
<path d="M9.65992 15.0001L7.32992 18.1101L8.32992 19.9001L7.86992 20.5201L4.16992 13.7701L4.59992 13.1801L12.1299 14.8001L11.6599 15.4201L9.65992 15.0001ZM8.99992 14.8401L4.99992 13.9401L6.99992 17.5301L8.99992 14.8401Z" fill="#303030"/>
<path d="M9 8.54998L9.6 8.09998L13.41 13.2L16.55 10.85L16.93 11.36L13.2 14.15L9 8.54998Z" fill="#303030"/>
<path d="M15.2998 4.37996L15.9698 4.07996L18.6098 9.85996L22.1798 8.23996L22.4398 8.81996L18.1998 10.75L15.2998 4.37996Z" fill="#303030"/>
<path d="M28.48 6.68003L28.63 7.31003L23.81 8.44003L22.21 1.62003L26.89 0.530029L27.03 1.15003L23.03 2.08003L23.6 4.50003L27.12 3.67003L27.27 4.29003L23.74 5.11003L24.34 7.64003L28.48 6.68003Z" fill="#303030"/>
<path d="M35.3498 6.92997L33.6798 4.72997C33.4933 4.74029 33.3064 4.74029 33.1198 4.72997L31.2398 4.78997L31.3098 7.00997H30.5698L30.3398 0.00996866L32.9998 -3.1339e-05C33.7519 -0.0694894 34.504 0.132721 35.1198 0.569969C35.3794 0.778962 35.588 1.04418 35.7301 1.3456C35.8721 1.64702 35.9439 1.97678 35.9398 2.30997C35.969 2.80416 35.8394 3.29473 35.5698 3.70997C35.2825 4.10853 34.8765 4.40603 34.4098 4.55997L36.1598 6.89997L35.3498 6.92997ZM34.6498 3.63997C34.8296 3.47531 34.9691 3.27154 35.0575 3.04439C35.1459 2.81725 35.1809 2.57281 35.1598 2.32997C35.165 2.08584 35.1146 1.84374 35.0124 1.62198C34.9101 1.40022 34.7588 1.20461 34.5698 1.04997C34.1089 0.737448 33.5547 0.592707 32.9998 0.639969L31.0998 0.709969L31.2198 4.20997L33.0798 4.14997C33.647 4.17096 34.2033 3.99026 34.6498 3.63997Z" fill="#303030"/>
<path d="M40.6396 5.07L40.2796 7.46L39.5496 7.35L39.9196 5L37.8496 0L38.6296 0.12L40.3996 4.38L43.3996 0.85L44.0996 1L40.6396 5.07Z" fill="#303030"/>
<path d="M50.5298 4.65005L51.3998 5.78005L51.0198 6.08005L50.1498 4.92005L49.5998 6.23005L49.1798 6.05005L49.7398 4.74005L48.2998 4.93005V4.45005L49.7198 4.29005L48.8398 3.16005L49.2298 2.86005L49.9998 4.00005L50.5398 2.68005L50.9698 2.86005L50.4598 4.20005L51.8998 4.00005V4.49005L50.5298 4.65005Z" fill="#303030"/>
<path d="M53.8704 12.71C53.6343 12.346 53.487 11.9315 53.4404 11.5L54.0304 11.24C54.0747 11.6364 54.2043 12.0185 54.4104 12.36C54.6338 12.743 54.9253 13.0819 55.2704 13.36C55.6269 13.7013 56.0817 13.9217 56.5704 13.99C56.747 14.0064 56.9249 13.9794 57.0887 13.9115C57.2525 13.8435 57.3973 13.7366 57.5104 13.6C57.5934 13.5085 57.6566 13.4009 57.6962 13.284C57.7357 13.167 57.7508 13.0431 57.7404 12.92C57.7074 12.6763 57.6257 12.4417 57.5004 12.23C57.3125 11.9231 57.1089 11.626 56.8904 11.34C56.6242 10.9912 56.3836 10.6236 56.1704 10.24C56.0075 9.95296 55.9182 9.63003 55.9104 9.30004C55.9097 8.92946 56.049 8.5723 56.3004 8.30004C56.5184 8.03617 56.8059 7.83869 57.1304 7.73004C57.493 7.62531 57.8778 7.62531 58.2404 7.73004C58.7076 7.88282 59.1394 8.12763 59.5104 8.45004C59.8183 8.70611 60.0907 9.00205 60.3204 9.33004C60.5329 9.6342 60.6918 9.97239 60.7904 10.33L60.2204 10.63C60.121 10.2967 59.9727 9.97991 59.7804 9.69004C59.5889 9.43118 59.3635 9.19913 59.1104 9.00004C58.7593 8.66028 58.3058 8.44587 57.8204 8.39004C57.642 8.37512 57.4627 8.40478 57.2987 8.47635C57.1346 8.54792 56.9909 8.65915 56.8804 8.80004C56.7954 8.89013 56.7308 8.99753 56.6911 9.11489C56.6514 9.23226 56.6375 9.35681 56.6504 9.48004C56.6738 9.73221 56.756 9.97538 56.8904 10.19C57.0304 10.42 57.2304 10.72 57.5004 11.08C57.7681 11.4208 58.0088 11.7819 58.2204 12.16C58.3868 12.4462 58.4796 12.7692 58.4904 13.1C58.4911 13.4706 58.3518 13.8278 58.1004 14.1C57.8817 14.3675 57.5898 14.5656 57.2604 14.67C56.8985 14.7793 56.5124 14.7793 56.1504 14.67C55.6801 14.5177 55.2449 14.2729 54.8704 13.95C54.4668 13.5987 54.1283 13.179 53.8704 12.71Z" fill="#303030"/>
<path d="M63.9297 14.17L62.5197 12.17L63.0397 11.8L66.2897 16.44L65.7697 16.81L64.3597 14.81L59.1397 18.46L58.7197 17.85L63.9297 14.17Z" fill="#303030"/>
<path d="M61.6902 22.39C61.8687 21.7856 62.2156 21.2445 62.6902 20.83C63.1545 20.4141 63.7202 20.1279 64.3302 20C64.9521 19.8572 65.6007 19.8814 66.2102 20.07C66.7986 20.2645 67.3259 20.6092 67.7402 21.07C68.171 21.5656 68.4641 22.1656 68.5902 22.81C68.7559 23.4426 68.7559 24.1073 68.5902 24.74C68.4068 25.3421 68.0608 25.8819 67.5902 26.3C67.1131 26.727 66.5335 27.0233 65.9079 27.16C65.2823 27.2967 64.632 27.2691 64.0202 27.08C63.4274 26.8949 62.8977 26.5487 62.4902 26.08C62.0614 25.587 61.7684 24.9907 61.6402 24.35C61.4875 23.7033 61.5047 23.028 61.6902 22.39ZM63.0002 25.57C63.3341 25.9502 63.7668 26.2306 64.2502 26.38C64.7485 26.5245 65.2752 26.5417 65.7818 26.4298C66.2885 26.318 66.759 26.0808 67.1502 25.74C67.5193 25.4004 67.7919 24.9691 67.9402 24.49C68.0797 23.9841 68.0933 23.4517 67.98 22.9393C67.8667 22.4269 67.6299 21.95 67.2902 21.55C66.9417 21.1679 66.4957 20.8879 66.0002 20.74C65.4956 20.606 64.9648 20.606 64.4602 20.74C63.9511 20.8377 63.4798 21.0768 63.1002 21.43C62.7277 21.7708 62.4547 22.2062 62.3102 22.69C62.1744 23.1977 62.1744 23.7322 62.3102 24.24C62.4197 24.7361 62.6577 25.1947 63.0002 25.57Z" fill="#303030"/>
<path d="M60.9302 34L63.5202 33C63.5202 32.82 63.5802 32.64 63.6302 32.45L64.1202 30.64L62.0002 30.09L62.1902 29.38L68.9502 31.19L68.2702 33.72C68.1171 34.4582 67.7058 35.1177 67.1102 35.58C66.8366 35.7701 66.5227 35.8942 66.1931 35.9428C65.8635 35.9914 65.5271 35.963 65.2102 35.86C64.7277 35.7553 64.2952 35.4892 63.9843 35.1056C63.6734 34.722 63.5027 34.2438 63.5002 33.75L60.7402 34.75L60.9302 34ZM64.2802 34.28C64.3974 34.4925 64.5563 34.6792 64.7474 34.8287C64.9385 34.9782 65.1579 35.0876 65.3924 35.1502C65.6268 35.2128 65.8715 35.2273 66.1118 35.1929C66.352 35.1585 66.5828 35.0759 66.7902 34.95C67.2316 34.5955 67.5328 34.0958 67.6402 33.54L68.1202 31.74L64.7302 30.83L64.2502 32.63C64.0657 33.1664 64.0764 33.7507 64.2802 34.28Z" fill="#303030"/>
<path d="M57.3401 40.44L56.8301 40.05L59.8301 36.1L65.4101 40.33L62.5101 44.16L62.0001 43.77L64.4501 40.54L62.4501 39.03L60.2601 41.92L59.7601 41.54L62.0001 38.65L59.9301 37.08L57.3401 40.44Z" fill="#303030"/>
<path d="M55.0003 48.41L53.5703 48.49V48.01L55.0003 48L54.2303 46.81L54.6203 46.56L55.3803 47.76L56.0003 46.42L56.4303 46.65L55.7503 47.91L57.1803 47.83V48.32H55.7303L56.5003 49.51L56.1103 49.76L55.3503 48.56L54.6903 49.86L54.2703 49.62L55.0003 48.41Z" fill="#303030"/>
<path d="M42.0002 47.61L43.2102 48.28C43.4131 47.8904 43.6962 47.5481 44.0409 47.2757C44.3857 47.0034 44.7842 46.8072 45.2102 46.7C45.6077 46.5761 46.0257 46.5319 46.4402 46.57C46.7999 46.5976 47.1455 46.722 47.4402 46.93C47.7067 47.1309 47.9027 47.4109 48.0002 47.73C48.1208 48.1248 48.0995 48.5493 47.9402 48.93C47.6893 49.4474 47.351 49.9176 46.9402 50.32C47.2699 50.4972 47.5757 50.7156 47.8502 50.97C48.0388 51.1649 48.1792 51.4012 48.2602 51.66C48.3115 51.8618 48.3147 52.0728 48.2695 52.276C48.2243 52.4792 48.1321 52.669 48.0002 52.83C47.7333 53.2147 47.335 53.4885 46.8802 53.6C46.4809 53.7523 46.0395 53.7523 45.6402 53.6C45.4627 53.5237 45.3052 53.4072 45.1803 53.2597C45.0554 53.1122 44.9664 52.9377 44.9202 52.75C44.8154 52.4199 44.8404 52.0623 44.9902 51.75C45.2198 51.2954 45.5202 50.8802 45.8802 50.52L43.4702 49.18C43.3783 49.651 43.358 50.1331 43.4102 50.61H42.8002C42.7592 50.0227 42.827 49.4328 43.0002 48.87L41.7402 48.17L42.0002 47.61ZM43.7402 48.61L46.3902 50.08C46.7375 49.7484 47.0251 49.3593 47.2402 48.93C47.3501 48.6401 47.3501 48.32 47.2402 48.03C47.1949 47.8568 47.1072 47.6975 46.985 47.5666C46.8628 47.4357 46.7099 47.3372 46.5402 47.28C46.1251 47.1398 45.6754 47.1398 45.2602 47.28C44.921 47.3695 44.6055 47.5323 44.336 47.7569C44.0664 47.9815 43.8494 48.2625 43.7002 48.58L43.7402 48.61ZM47.5002 52.61C47.5656 52.4995 47.6065 52.3763 47.6203 52.2487C47.6341 52.1211 47.6204 51.9919 47.5802 51.87C47.519 51.6726 47.4089 51.4937 47.2602 51.35C47.0057 51.1353 46.7272 50.9508 46.4302 50.8C46.127 51.0998 45.8617 51.4357 45.6402 51.8C45.5193 52.0272 45.4907 52.2923 45.5602 52.54C45.592 52.6545 45.6476 52.7609 45.7234 52.8522C45.7993 52.9436 45.8936 53.0178 46.0002 53.07C46.2548 53.166 46.5356 53.166 46.7902 53.07C47.0621 52.9975 47.2995 52.831 47.4602 52.6L47.5002 52.61Z" fill="#303030"/>
<path d="M29.8096 55.3199L29.9496 48.3199H30.6596L30.5496 53.9199L33.3896 49.2599H33.7396L36.3996 53.9999L36.4996 48.4299H37.2096L37.0796 55.4299H36.4696L33.5296 50.1999L30.4196 55.3299L29.8096 55.3199Z" fill="#303030"/>
<path d="M26.33 48C26.7873 48.4358 27.1145 48.9901 27.2752 49.601C27.4359 50.212 27.4237 50.8556 27.24 51.46C27.0757 52.0789 26.7475 52.642 26.29 53.09C25.8454 53.527 25.2879 53.8317 24.68 53.97C24.0387 54.1147 23.3711 54.094 22.74 53.91C22.111 53.7564 21.5323 53.4429 21.06 53C20.6095 52.5697 20.2875 52.0227 20.13 51.42C19.9762 50.7969 19.9876 50.1446 20.1629 49.5273C20.3383 48.91 20.6716 48.3491 21.13 47.9C21.5667 47.4641 22.1123 47.1533 22.71 47C23.348 46.8557 24.0122 46.8763 24.64 47.06C25.2755 47.221 25.858 47.545 26.33 48ZM22.92 47.65C22.4308 47.7639 21.9837 48.0134 21.63 48.37C21.2616 48.7369 20.9991 49.1963 20.87 49.7C20.7305 50.2004 20.7305 50.7295 20.87 51.23C20.9879 51.7169 21.241 52.1606 21.6 52.51C21.9765 52.8782 22.4414 53.1433 22.95 53.28C23.4585 53.4095 23.9914 53.4095 24.5 53.28C24.9895 53.1596 25.4382 52.9111 25.8 52.56C26.1664 52.1916 26.4286 51.7327 26.56 51.23C26.6998 50.7262 26.6998 50.1938 26.56 49.69C26.432 49.2049 26.1765 48.7629 25.82 48.41C25.4415 48.0413 24.9723 47.7791 24.46 47.65C23.9561 47.5107 23.4239 47.5107 22.92 47.65Z" fill="#303030"/>
<path d="M15.3495 43L15.6195 45.75C15.7911 45.8233 15.958 45.9068 16.1195 46L17.7495 46.94L18.8495 45L19.4995 45.37L15.9995 51.4L13.7195 50.09C13.0456 49.7515 12.514 49.1844 12.2195 48.49C12.1108 48.1772 12.0742 47.8439 12.1123 47.5149C12.1504 47.1859 12.2622 46.8698 12.4395 46.59C12.672 46.1518 13.0405 45.8008 13.4895 45.59C13.9456 45.4011 14.4501 45.3626 14.9295 45.48L14.6395 42.54L15.3495 43ZM14.2095 46.16C13.9747 46.219 13.7541 46.3247 13.561 46.4708C13.368 46.617 13.2064 46.8006 13.086 47.0107C12.9655 47.2207 12.8887 47.4529 12.8601 47.6934C12.8315 47.9338 12.8517 48.1776 12.9195 48.41C13.154 48.9276 13.5603 49.3481 14.0695 49.6L15.6795 50.53L17.4295 47.53L15.8195 46.6C15.3568 46.2533 14.787 46.0799 14.2095 46.11V46.16Z" fill="#303030"/>
<path d="M9.43 38.31L9.88 37.86L13.33 41.41L8.33 46.29L5 42.85L5.46 42.4L8.29 45.31L10 43.58L7.52 41L8 40.54L10.53 43.14L12.39 41.33L9.43 38.31Z" fill="#303030"/>
<path d="M2.00035 34.38L2.24035 33L2.71035 33.07L2.44035 34.49L3.77035 34L3.93035 34.44L2.58035 34.9L3.69035 35.84L3.37035 36.2L2.30035 35.2L2.05035 36.62L1.57035 36.53L1.85035 35.11L0.510352 35.59L0.360352 35.2L1.70035 34.73L0.590352 33.8L0.920352 33.44L2.00035 34.38Z" fill="#303030"/>
</g>
<defs>
<clipPath id="clip0_1374_36">
<rect width="68.93" height="55.46" fill="white"/>
</clipPath>
</defs>
</svg>

<svg xmlns="http://www.w3.org/2000/svg" width="69" height="56" fill="none"><g clip-path="url(#a)"><path fill="#303030" d="m39.15 16.87-1.31-1a1 1 0 0 0-1.4.14L18.31 36.83l.28.31L23.08 33a.69.69 0 0 1 .27-1.33.68.68 0 0 1 .65.48l5.92-5.49a.51.51 0 0 1 .64 0l.3.22a.5.5 0 0 0 .67-.08l7.74-8.68a.83.83 0 0 0-.12-1.25Z"/><path fill="#303030" d="M47.67 22.73a40.45 40.45 0 0 1-13.12 6.15A71.156 71.156 0 0 1 20.28 31c.097.71.272 1.408.52 2.08 2.72 2.46 23.2-1.74 27.2-6.6.85-1.01-.33-3.75-.33-3.75ZM23.35 33a.68.68 0 1 1 .68-.68.67.67 0 0 1-.68.68ZM4 21.29l.16-.69 2.6.59c.215.396.347.831.39 1.28.05.475.02.955-.09 1.42a3.76 3.76 0 0 1-.86 1.74 3.43 3.43 0 0 1-1.54 1 3.65 3.65 0 0 1-1.89.07 3.51 3.51 0 0 1-1.67-.88 3.3 3.3 0 0 1-.95-1.57 3.78 3.78 0 0 1 0-2c.108-.49.3-.957.57-1.38a2.92 2.92 0 0 1 1-.93l.36.55a2.86 2.86 0 0 0-1.32 1.94A3.12 3.12 0 0 0 .79 24c.135.486.401.926.77 1.27.38.367.854.62 1.37.73.5.14 1.03.14 1.53 0 .48-.158.91-.437 1.25-.81.35-.403.59-.888.7-1.41a3.07 3.07 0 0 0-.12-1.91L4 21.29Z"/><path d="m9.66 15-2.33 3.11 1 1.79-.46.62-3.7-6.75.43-.59 7.53 1.62-.47.62-2-.42ZM9 14.84l-4-.9 2 3.59 2-2.69ZM9 8.55l.6-.45 3.81 5.1 3.14-2.35.38.51-3.73 2.79L9 8.55ZM15.3 4.38l.67-.3 2.64 5.78 3.57-1.62.26.58-4.24 1.93-2.9-6.37ZM28.48 6.68l.15.63-4.82 1.13-1.6-6.82L26.89.53l.14.62-4 .93.57 2.42 3.52-.83.15.62-3.53.82.6 2.53 4.14-.96Z"/><path fill="#303030" d="m35.35 6.93-1.67-2.2c-.187.01-.374.01-.56 0l-1.88.06.07 2.22h-.74l-.23-7L33 0a3.16 3.16 0 0 1 2.12.57 2.2 2.2 0 0 1 .82 1.74c.029.494-.1.985-.37 1.4a2.33 2.33 0 0 1-1.16.85l1.75 2.34-.81.03Zm-.7-3.29a1.59 1.59 0 0 0 .51-1.31 1.61 1.61 0 0 0-.59-1.28A2.43 2.43 0 0 0 33 .64l-1.9.07.12 3.5 1.86-.06a2.4 2.4 0 0 0 1.57-.51Z"/><path d="m40.64 5.07-.36 2.39-.73-.11.37-2.35-2.07-5 .78.12 1.77 4.26 3-3.53.7.15-3.46 4.07Z"/><path fill="#303030" d="m50.53 4.65.87 1.13-.38.3-.87-1.16-.55 1.31-.42-.18.56-1.31-1.44.19v-.48l1.42-.16-.88-1.13.39-.3L50 4l.54-1.32.43.18-.51 1.34L51.9 4v.49l-1.37.16ZM53.87 12.71a2.77 2.77 0 0 1-.43-1.21l.59-.26c.045.396.174.778.38 1.12.224.383.515.722.86 1a2.35 2.35 0 0 0 1.3.63 1.09 1.09 0 0 0 .94-.39.9.9 0 0 0 .23-.68 1.84 1.84 0 0 0-.24-.69 10.48 10.48 0 0 0-.61-.89 9.099 9.099 0 0 1-.72-1.1 2 2 0 0 1-.26-.94c0-.37.139-.728.39-1a1.83 1.83 0 0 1 .83-.57 2 2 0 0 1 1.11 0 3.68 3.68 0 0 1 1.27.72c.308.256.58.552.81.88.213.304.372.642.47 1l-.57.3a3.52 3.52 0 0 0-.44-.94 3.608 3.608 0 0 0-.67-.69 2.22 2.22 0 0 0-1.29-.61 1.08 1.08 0 0 0-.94.41.86.86 0 0 0-.23.68c.024.252.106.495.24.71.14.23.34.53.61.89.268.34.509.702.72 1.08a2 2 0 0 1 .27.94c.001.37-.138.728-.39 1a1.78 1.78 0 0 1-.84.57 1.92 1.92 0 0 1-1.11 0 3.711 3.711 0 0 1-1.28-.72 4.551 4.551 0 0 1-1-1.24Z"/><path d="m63.93 14.17-1.41-2 .52-.37 3.25 4.64-.52.37-1.41-2-5.22 3.65-.42-.61 5.21-3.68Z"/><path fill="#303030" d="M61.69 22.39a3.32 3.32 0 0 1 1-1.56 3.55 3.55 0 0 1 1.64-.83 3.62 3.62 0 0 1 1.88.07 3.56 3.56 0 0 1 1.53 1 3.75 3.75 0 0 1 .85 1.74 3.809 3.809 0 0 1 0 1.93 3.42 3.42 0 0 1-1 1.56 3.71 3.71 0 0 1-3.57.78 3.35 3.35 0 0 1-1.53-1 3.76 3.76 0 0 1-.85-1.73 3.851 3.851 0 0 1 .05-1.96ZM63 25.57c.334.38.767.66 1.25.81a3.1 3.1 0 0 0 2.9-.64c.37-.34.642-.77.79-1.25a3.22 3.22 0 0 0-.65-2.94 2.849 2.849 0 0 0-1.29-.81 3 3 0 0 0-1.54 0 2.76 2.76 0 0 0-1.36.69 2.79 2.79 0 0 0-.79 1.26 3 3 0 0 0 0 1.55 2.9 2.9 0 0 0 .69 1.33ZM60.93 34l2.59-1c0-.18.06-.36.11-.55l.49-1.81-2.12-.55.19-.71 6.76 1.81-.68 2.53a3.17 3.17 0 0 1-1.16 1.86 2.16 2.16 0 0 1-1.9.28 2.17 2.17 0 0 1-1.71-2.11l-2.76 1 .19-.75Zm3.35.28a1.8 1.8 0 0 0 2.51.67 2.39 2.39 0 0 0 .85-1.41l.48-1.8-3.39-.91-.48 1.8a2.41 2.41 0 0 0 .03 1.65Z"/><path d="m57.34 40.44-.51-.39 3-3.95 5.58 4.23-2.9 3.83-.51-.39 2.45-3.23-2-1.51-2.19 2.89-.5-.38L62 38.65l-2.07-1.57-2.59 3.36Z"/><path fill="#303030" d="m55 48.41-1.43.08v-.48L55 48l-.77-1.19.39-.25.76 1.2.62-1.34.43.23-.68 1.26 1.43-.08v.49h-1.45l.77 1.19-.39.25-.76-1.2-.66 1.3-.42-.24.73-1.21ZM42 47.61l1.21.67a3.112 3.112 0 0 1 2-1.58 3.161 3.161 0 0 1 1.23-.13 2 2 0 0 1 1 .36c.267.2.463.48.56.8.12.395.1.82-.06 1.2a5 5 0 0 1-1 1.39c.33.177.636.396.91.65.189.195.33.431.41.69a1.329 1.329 0 0 1-.26 1.17 1.92 1.92 0 0 1-1.12.77c-.4.152-.84.152-1.24 0a1.25 1.25 0 0 1-.72-.85 1.36 1.36 0 0 1 .07-1c.23-.455.53-.87.89-1.23l-2.41-1.34a4.762 4.762 0 0 0-.06 1.43h-.61a4.783 4.783 0 0 1 .2-1.74l-1.26-.7.26-.56Zm1.74 1 2.65 1.47c.347-.332.635-.72.85-1.15.11-.29.11-.61 0-.9a1.08 1.08 0 0 0-.7-.75 2 2 0 0 0-1.28 0 2.4 2.4 0 0 0-1.56 1.3l.04.03Zm3.76 4a.9.9 0 0 0 .08-.74 1.23 1.23 0 0 0-.32-.52 4.32 4.32 0 0 0-.83-.55 5.22 5.22 0 0 0-.79 1 1 1 0 0 0-.08.74.841.841 0 0 0 .44.53c.255.096.536.096.79 0a1.19 1.19 0 0 0 .67-.47l.04.01Z"/><path d="m29.81 55.32.14-7h.71l-.11 5.6 2.84-4.66h.35L36.4 54l.1-5.57h.71l-.13 7h-.61l-2.94-5.23-3.11 5.13-.61-.01Z"/><path fill="#303030" d="M26.33 48a3.41 3.41 0 0 1 .91 3.46 3.56 3.56 0 0 1-.95 1.63 3.36 3.36 0 0 1-1.61.88 3.88 3.88 0 0 1-1.94-.06 3.76 3.76 0 0 1-1.68-.91 3.36 3.36 0 0 1-.93-1.58 3.69 3.69 0 0 1 1-3.52 3.45 3.45 0 0 1 1.58-.9 3.849 3.849 0 0 1 1.93.06 3.769 3.769 0 0 1 1.69.94Zm-3.41-.35a2.67 2.67 0 0 0-1.29.72 2.89 2.89 0 0 0-.76 1.33c-.14.5-.14 1.03 0 1.53.118.487.371.93.73 1.28a3.07 3.07 0 0 0 1.35.77 3.14 3.14 0 0 0 1.55 0c.49-.12.938-.369 1.3-.72a2.94 2.94 0 0 0 .76-1.33 2.88 2.88 0 0 0 0-1.54 2.81 2.81 0 0 0-.74-1.28 3 3 0 0 0-1.36-.76 2.89 2.89 0 0 0-1.54 0ZM15.35 43l.27 2.75c.171.073.338.157.5.25l1.63.94 1.1-1.94.65.37L16 51.4l-2.28-1.31a3.18 3.18 0 0 1-1.5-1.6 2.2 2.2 0 0 1 .22-1.9c.232-.438.6-.79 1.05-1a2.32 2.32 0 0 1 1.44-.11l-.29-2.94.71.46Zm-1.14 3.16a1.803 1.803 0 0 0-1.35 1.533 1.8 1.8 0 0 0 .06.717c.234.518.64.938 1.15 1.19l1.61.93 1.75-3-1.61-.93a2.47 2.47 0 0 0-1.61-.49v.05Z"/><path d="m9.43 38.31.45-.45 3.45 3.55-5 4.88L5 42.85l.46-.45 2.83 2.91L10 43.58 7.52 41l.48-.46 2.53 2.6 1.86-1.81-2.96-3.02Z"/><path fill="#303030" d="M2 34.38 2.24 33l.47.07-.27 1.42L3.77 34l.16.44-1.35.46 1.11.94-.32.36-1.07-1-.25 1.42-.48-.09.28-1.42-1.34.48-.15-.39 1.34-.47-1.11-.93.33-.36 1.08.94Z"/></g><defs><clipPath id="a"><path fill="#fff" d="M0 0h68.93v55.46H0z"/></clipPath></defs></svg>
